svg/frequency.svg

<svg width="24" height="24" viewBox="0 0 24 24"  xmlns="http://www.w3.org/2000/svg">
<path d="M3 4.5L6 7L6 5.25H18V7L21 4.5L18 2V3.75H6L6 2L3 4.5Z" />
<path d="M6.63935 11.9367C7.14967 10.7061 8.89138 10.7018 9.4077 11.9299L12.735 19.8442C13.9443 22.7205 18.0283 22.6965 19.2036 19.8061L21.1579 15H18.9989L17.351 19.0527C16.8472 20.2915 15.0969 20.3018 14.5787 19.0691L11.2514 11.1548C10.0466 8.28919 5.98264 8.29911 4.79189 11.1706L3.20392 15H5.36906L6.63935 11.9367Z" />
</svg>

<svg width="24" height="24" viewBox="0 0 24 24" xmlns="http://www.w3.org/2000/svg"><path d="M3 4.5L6 7V5.25h12V7l3-2.5L18 2v1.75H6V2L3 4.5zM6.64 11.937c.51-1.23 2.251-1.235 2.768-.007l3.327 7.914c1.21 2.877 5.293 2.852 6.469-.038L21.158 15h-2.16l-1.647 4.053c-.504 1.238-2.254 1.249-2.772.016l-3.328-7.914c-1.204-2.866-5.268-2.856-6.46.016L3.205 15h2.165l1.27-3.063z"/></svg>
